X:155
T:Quick Step No 1. - Regulation Fife Calls 1776-1856, #9 *
B:American Veteran Fifer, Regulation Fife Calls 1776-1856, #9
M:2/4
L:1/16
Q:1/4=90
K:D
fg|d2D2 D2AG|FAd2 dfed|e2E2 E2ed|cea2 a2>f2|gfga bagf|gfge dcBA|Bdcedfeg|f2d2d2 z2:||
||:AG|FAdA FAdA|B2G2 G2BA|GBed GBed|c2A2 A2>f2|gfga bagf|gfge dcBA|Bdce dfeg|f2d2d2 z2:|
